svg/fluentui-system-icons/ic_fluent_shield_28_regular.svg

<svg width="28" height="28" viewBox="0 0 28 28" fill="none" xmlns="http://www.w3.org/2000/svg">
<path d="M13.5596 2.14208C13.8218 1.95264 14.1759 1.95264 14.4381 2.14208C15.0807 2.60639 16.526 3.45355 18.335 4.18311C20.1454 4.9133 22.2575 5.5 24.2476 5.5C24.6618 5.5 24.9976 5.83579 24.9976 6.25V14.002C24.9976 17.0293 23.295 19.8431 21.1605 21.9516C19.0272 24.0589 16.3331 25.5914 14.1275 25.9756L13.9988 25.998L13.8701 25.9756C11.6645 25.5914 8.97042 24.0589 6.83716 21.9516C4.70264 19.8431 3 17.0293 3 14.002V6.25C3 5.83579 3.33579 5.5 3.75 5.5C5.74138 5.5 7.85341 4.91328 9.6635 4.18313C11.4721 3.45359 12.9169 2.60645 13.5596 2.14208ZM4.5 6.97663V14.002C4.5 16.4727 5.9082 18.9255 7.8913 20.8845C9.82929 22.7989 12.1926 24.1178 13.9988 24.4739C15.805 24.1178 18.1683 22.7989 20.1063 20.8845C22.0894 18.9255 23.4976 16.4727 23.4976 14.002V6.97661C21.4837 6.85312 19.4663 6.25678 17.7739 5.57423C16.1853 4.93353 14.8396 4.19897 13.9988 3.65635C13.1582 4.19894 11.813 4.9335 10.2246 5.57422C8.53239 6.25683 6.51483 6.85319 4.5 6.97663Z" fill="#212121"/>
</svg>

<svg xmlns="http://www.w3.org/2000/svg" width="28" height="28"><path d="M13.56 2.142a.75.75 0 0 1 .878 0c.643.464 2.088 1.312 3.897 2.041 1.81.73 3.922 1.317 5.913 1.317a.75.75 0 0 1 .75.75v7.752c0 3.027-1.703 5.841-3.838 7.95-2.133 2.107-4.827 3.64-7.033 4.024l-.128.022-.129-.022c-2.205-.385-4.9-1.917-7.033-4.024C4.703 19.843 3 17.029 3 14.002V6.25a.75.75 0 0 1 .75-.75c1.991 0 4.103-.587 5.914-1.317 1.808-.73 3.253-1.577 3.896-2.04ZM4.5 6.977v7.025c0 2.47 1.408 4.923 3.391 6.882C9.83 22.8 12.193 24.118 14 24.474c1.806-.356 4.17-1.675 6.107-3.59 1.983-1.959 3.392-4.411 3.392-6.882V6.977c-2.014-.124-4.032-.72-5.724-1.403-1.589-.64-2.934-1.375-3.775-1.918-.84.543-2.186 1.278-3.774 1.918-1.693.683-3.71 1.28-5.725 1.403Z"/></svg>
